X:1
T:Title
%%score { 1 | 2 }
L:1/8
Q:1/4=100
M:4/4
K:Ab
V:1 treble nm="Grand Piano"
V:2 bass 
V:1
 [CE]>[_C=D] [=CE]>[CA] [Fd]2 [Ec]2 | [FB]>[F=A] c>B F4 | G>_G =G>d c2 B2 | %3
w: Marie~DeForrest * * * * *|||
 [CB]>[CA] [_CG]>[CF] [=CE]4 | [CE]>[_C=D] [=CE]>[CA] [Fd]2 [Ec]2 | [FB]>[F=A] c>B F4 | %6
w: |||
 G>e d>G c>B F>G |[M:3/4] .[CA]2 .[DA]2 .[CA]2 |[M:1/4] [CE][CA] |[M:4/4] .c2 .c2 .c2 dc | %10
w: ||||
 [=Dc]2 [DB]2 [DF]4 | G>_G =G>d c2 B2 | [CB]2 [CA]2 [CE]2 [CE][CA] | c2 c2 c2 dc | %14
w: ||||
 [FB]2 [Fc]2 [Fd]4 | [Fd]2 F2 E2 c2 | c>B F>G [CA]4 |] %17
w: |||
V:2
 [A,,A,]>[A,,A,] [A,,A,]>[A,,A,] [A,,A,]2 [A,,A,]2 | [D,A,]>[D,A,] [D,F,D]>[D,F,D] [D,B,D]4 | %2
 [E,B,D]>[E,=A,D] [E,B,D]>[E,G,E] [E,_A,E]2 [E,G,D]2 | [A,,E,]>[A,,E,] [A,,=D,]>[A,,F,] [A,,A,]4 | %4
 [A,,A,]>[A,,A,] [A,,A,]>[A,,A,] [A,,A,]2 [A,,A,]2 | [D,A,]>[D,A,] [D,F,D]>[D,F,D] [D,B,D]4 | %6
 [E,B,D]>[E,G,E] [E,B,E]>[E,B,E] [E,A,E]>[E,G,D] [E,A,D]>[E,D] | %7
[M:3/4] [A,,E,]2 [A,,F,]2 [A,,E,]2 |[M:1/4] [A,,A,][A,,A,] | %9
[M:4/4] .[A,E]2 .[G,B,=E]2 .[F,=A,_E]2 [F,A,E][F,A,E] | [B,,A,]2 [B,,F,]2 [B,,B,]4 | %11
 [E,B,D]>[E,=A,D] [E,B,D]>[E,G,E] [E,_A,E]2 [E,D]2 | [A,,E,]2 [A,,E,]2 [A,,A,]2 [A,,A,][A,,A,] | %13
 [A,E]2 [G,B,=E]2 [F,=A,_E]2 [F,A,E][F,A,E] | [D,A,]2 [C,=A,]2 [B,,B,]4 | %15
 [D,A,]2 [D,A,D]2 [E,A,C]2 [E,A,E]2 | [E,G,D]>[E,G,D] [E,A,D]>[E,D] [A,,E,]4 |] %17

